icons/folder-chart-2-line.svg

<svg xmlns="http://www.w3.org/2000/svg" width="24" height="24" fill="none"><g clip-path="url(#a)"><g><path fill="#121212" d="M12.414 5H21C21.2652 5 21.5196 5.10536 21.7071 5.29289C21.8946 5.48043 22 5.73478 22 6V20C22 20.2652 21.8946 20.5196 21.7071 20.7071C21.5196 20.8946 21.2652 21 21 21H3C2.73478 21 2.48043 20.8946 2.29289 20.7071C2.10536 20.5196 2 20.2652 2 20V4C2 3.73478 2.10536 3.48043 2.29289 3.29289C2.48043 3.10536 2.73478 3 3 3H10.414L12.414 5ZM4 5V19H20V7H11.586L9.586 5H4ZM12 9V13H16C16 13.7911 15.7654 14.5645 15.3259 15.2223C14.8864 15.8801 14.2616 16.3928 13.5307 16.6955C12.7998 16.9983 11.9956 17.0775 11.2196 16.9231C10.4437 16.7688 9.73098 16.3878 9.17157 15.8284C8.61216 15.269 8.2312 14.5563 8.07686 13.7804C7.92252 13.0044 8.00173 12.2002 8.30448 11.4693C8.60723 10.7384 9.11992 10.1136 9.77772 9.67412C10.4355 9.2346 11.2089 9 12 9Z"/></g></g><defs><clipPath id="a"><rect width="24" height="24" fill="white"/></clipPath></defs></svg>

<svg width="24" height="24" fill="none" xmlns="http://www.w3.org/2000/svg"><g clip-path="url(#a)"><path d="M12.414 5H21a1 1 0 0 1 1 1v14a1 1 0 0 1-1 1H3a1 1 0 0 1-1-1V4a1 1 0 0 1 1-1h7.414l2 2ZM4 5v14h16V7h-8.414l-2-2H4Zm8 4v4h4a4 4 0 1 1-4-4Z" /></g><defs><clipPath id="a"><path fill="#fff" d="M0 0h24v24H0z"/></clipPath></defs></svg>
